web/assets/img/functions/530_5.svg

<svg id="vector" xmlns="http://www.w3.org/2000/svg" width="512" height="512" viewBox="0 0 512 512">
    <path fill="#000000"
          d="M401,198.93H210V162.93C210,160.28 208.95,157.73 207.07,155.86C205.2,153.98 202.65,152.93 200,152.93H128C125.35,152.93 122.8,153.98 120.93,155.86C119.05,157.73 118,160.28 118,162.93V198.93H111C81.84,198.96 53.88,210.56 33.26,231.19C12.63,251.81 1.03,279.77 1,308.93V354.93C1.03,384.09 12.63,412.05 33.25,432.68C53.88,453.3 81.84,464.9 111,464.93H118V483.93C118,486.58 119.05,489.13 120.93,491C122.8,492.88 125.35,493.93 128,493.93H200C202.65,493.93 205.2,492.88 207.07,491C208.95,489.13 210,486.58 210,483.93V464.93H302V483.93C302,486.58 303.05,489.13 304.93,491C306.8,492.88 309.35,493.93 312,493.93H384C386.65,493.93 389.2,492.88 391.07,491C392.95,489.13 394,486.58 394,483.93V464.93H401C430.16,464.9 458.13,453.3 478.75,432.68C499.37,412.05 510.97,384.09 511,354.93V308.93C510.97,279.77 499.36,251.81 478.74,231.19C458.12,210.56 430.16,198.96 401,198.93ZM118,444.93H111C87.14,444.9 64.26,435.41 47.39,418.54C30.52,401.67 21.03,378.79 21,354.93V308.93C21.03,285.07 30.52,262.19 47.39,245.32C64.26,228.45 87.14,218.96 111,218.93H118V444.93ZM138,172.93H190V198.93H138V172.93ZM190,473.93H138V464.93H190V473.93ZM138,444.93V218.93H373V444.93H138ZM374,473.93H322V464.93H374V473.93ZM491,354.93C490.97,378.79 481.48,401.67 464.61,418.54C447.74,435.41 424.86,444.9 401,444.93H393V218.93H401C424.86,218.96 447.74,228.45 464.61,245.32C481.48,262.19 490.97,285.07 491,308.93V354.93Z"
          id="path_0"/>
    <path fill="#00D151"
          d="M256,385.93C244.86,385.93 234.18,381.51 226.3,373.63C218.43,365.75 214,355.07 214,343.93C214,316.58 245.35,284.44 248.93,280.86C250.8,278.98 253.35,277.93 256,277.93C258.65,277.93 261.2,278.98 263.07,280.86C266.65,284.44 298,316.58 298,343.93C298,355.07 293.58,365.75 285.7,373.63C277.82,381.51 267.14,385.93 256,385.93ZM256,302.72C245.61,314.92 234,332.3 234,343.93C234,349.76 236.32,355.36 240.44,359.49C244.57,363.61 250.16,365.93 256,365.93C261.83,365.93 267.43,363.61 271.56,359.49C275.68,355.36 278,349.76 278,343.93C278,332.3 266.39,314.92 256,302.72Z"
          id="path_1"/>
    <path fill="#000000"
          d="M144,138.72C141.35,138.72 138.8,137.67 136.93,135.79C135.05,133.91 134,131.37 134,128.72C133.93,122.41 135.92,116.24 139.68,111.17C141.37,108.64 142,107.69 142,104.72C142,101.75 141.37,100.8 139.68,98.26C135.99,93.15 134,87.01 134,80.71C134,74.41 135.99,68.27 139.68,63.17C141.37,60.64 142,59.69 142,56.72C142,54.07 143.05,51.52 144.93,49.65C146.8,47.77 149.35,46.72 152,46.72C154.65,46.72 157.2,47.77 159.07,49.65C160.95,51.52 162,54.07 162,56.72C162.07,63.03 160.08,69.2 156.32,74.27C154.63,76.8 154,77.75 154,80.72C154,83.69 154.63,84.64 156.32,87.17C160.01,92.28 161.99,98.42 161.99,104.72C161.99,111.02 160.01,117.16 156.32,122.27C154.63,124.8 154,125.75 154,128.72C154,131.37 152.95,133.91 151.07,135.79C149.2,137.67 146.65,138.72 144,138.72Z"
          id="path_2"/>
    <path fill="#000000"
          d="M180,138.72C177.35,138.72 174.8,137.67 172.93,135.79C171.05,133.91 170,131.37 170,128.72C169.93,122.41 171.92,116.24 175.68,111.17C177.37,108.64 178,107.69 178,104.72C178,101.75 177.37,100.8 175.68,98.26C171.99,93.15 170,87.01 170,80.71C170,74.41 171.99,68.27 175.68,63.17C177.37,60.64 178,59.69 178,56.72C178,54.07 179.05,51.52 180.93,49.65C182.8,47.77 185.35,46.72 188,46.72C190.65,46.72 193.2,47.77 195.07,49.65C196.95,51.52 198,54.07 198,56.72C198.07,63.03 196.08,69.2 192.32,74.27C190.63,76.8 190,77.75 190,80.72C190,83.69 190.63,84.64 192.32,87.17C196.01,92.28 197.99,98.42 197.99,104.72C197.99,111.02 196.01,117.16 192.32,122.27C190.63,124.8 190,125.75 190,128.72C190,131.37 188.95,133.91 187.07,135.79C185.2,137.67 182.65,138.72 180,138.72Z"
          id="path_3"/>
    <path fill="#000000"
          d="M227,84.07C232.52,84.07 237,79.59 237,74.07C237,68.55 232.52,64.07 227,64.07C221.48,64.07 217,68.55 217,74.07C217,79.59 221.48,84.07 227,84.07Z"
          id="path_4"/>
    <path fill="#000000"
          d="M104,107.07C109.52,107.07 114,102.59 114,97.07C114,91.55 109.52,87.07 104,87.07C98.48,87.07 94,91.55 94,97.07C94,102.59 98.48,107.07 104,107.07Z"
          id="path_5"/>
    <path fill="#000000"
          d="M128,38.07C133.52,38.07 138,33.59 138,28.07C138,22.55 133.52,18.07 128,18.07C122.48,18.07 118,22.55 118,28.07C118,33.59 122.48,38.07 128,38.07Z"
          id="path_6"/>
</svg>

<?xml version="1.0" encoding="utf-8"?>
<!-- Generator: Adobe Illustrator 28.2.0, SVG Export Plug-In . SVG Version: 6.00 Build 0)  -->
<svg version="1.1" id="vector" xmlns="http://www.w3.org/2000/svg" xmlns:xlink="http://www.w3.org/1999/xlink" x="0px" y="0px"
	 viewBox="0 0 512 512" style="enable-background:new 0 0 512 512;" xml:space="preserve">
<style type="text/css">
	.st0{fill:#33B0DF;}
</style>
<path id="path_0" d="M401,198.9H210v-36c0-2.6-1.1-5.2-2.9-7.1c-1.9-1.9-4.4-2.9-7.1-2.9h-72c-2.7,0-5.2,1.1-7.1,2.9
	c-1.9,1.9-2.9,4.4-2.9,7.1v36h-7c-29.2,0-57.1,11.6-77.7,32.3C12.6,251.8,1,279.8,1,308.9v46c0,29.2,11.6,57.1,32.2,77.8
	c20.6,20.6,48.6,32.2,77.8,32.2h7v19c0,2.6,1.1,5.2,2.9,7.1c1.9,1.9,4.4,2.9,7.1,2.9h72c2.6,0,5.2-1,7.1-2.9
	c1.9-1.9,2.9-4.4,2.9-7.1v-19h92v19c0,2.6,1,5.2,2.9,7.1c1.9,1.9,4.4,2.9,7.1,2.9h72c2.6,0,5.2-1,7.1-2.9c1.9-1.9,2.9-4.4,2.9-7.1
	v-19h7c29.2,0,57.1-11.6,77.8-32.2c20.6-20.6,32.2-48.6,32.2-77.8v-46c0-29.2-11.6-57.1-32.3-77.7C458.1,210.6,430.2,199,401,198.9z
	 M118,444.9h-7c-23.9,0-46.7-9.5-63.6-26.4S21,378.8,21,354.9v-46c0-23.9,9.5-46.7,26.4-63.6S87.1,219,111,218.9h7V444.9z
	 M138,172.9h52v26h-52V172.9z M190,473.9h-52v-9h52V473.9z M138,444.9v-226h235v226H138z M374,473.9h-52v-9h52V473.9z M491,354.9
	c0,23.9-9.5,46.7-26.4,63.6c-16.9,16.9-39.8,26.4-63.6,26.4h-8v-226h8c23.9,0,46.7,9.5,63.6,26.4c16.9,16.9,26.4,39.8,26.4,63.6
	V354.9z"/>
<path id="path_1" class="st0" d="M256,385.9c-11.1,0-21.8-4.4-29.7-12.3c-7.9-7.9-12.3-18.6-12.3-29.7c0-27.4,31.4-59.5,34.9-63.1
	c1.9-1.9,4.4-2.9,7.1-2.9s5.2,1.1,7.1,2.9c3.6,3.6,34.9,35.7,34.9,63.1c0,11.1-4.4,21.8-12.3,29.7
	C277.8,381.5,267.1,385.9,256,385.9z M256,302.7c-10.4,12.2-22,29.6-22,41.2c0,5.8,2.3,11.4,6.4,15.6c4.1,4.1,9.7,6.4,15.6,6.4
	c5.8,0,11.4-2.3,15.6-6.4c4.1-4.1,6.4-9.7,6.4-15.6C278,332.3,266.4,314.9,256,302.7z"/>
<path id="path_2" d="M144,138.7c-2.6,0-5.2-1.1-7.1-2.9c-1.9-1.9-2.9-4.4-2.9-7.1c-0.1-6.3,1.9-12.5,5.7-17.6
	c1.7-2.5,2.3-3.5,2.3-6.4s-0.6-3.9-2.3-6.5C136,93.2,134,87,134,80.7c0-6.3,2-12.4,5.7-17.5c1.7-2.5,2.3-3.5,2.3-6.4
	c0-2.7,1.1-5.2,2.9-7.1c1.9-1.9,4.4-2.9,7.1-2.9s5.2,1,7.1,2.9c1.9,1.9,2.9,4.4,2.9,7.1c0.1,6.3-1.9,12.5-5.7,17.5
	c-1.7,2.5-2.3,3.5-2.3,6.5s0.6,3.9,2.3,6.4c3.7,5.1,5.7,11.2,5.7,17.6c0,6.3-2,12.4-5.7,17.5c-1.7,2.5-2.3,3.5-2.3,6.5
	c0,2.6-1.1,5.2-2.9,7.1C149.2,137.7,146.6,138.7,144,138.7z"/>
<path id="path_3" d="M180,138.7c-2.6,0-5.2-1.1-7.1-2.9c-1.9-1.9-2.9-4.4-2.9-7.1c-0.1-6.3,1.9-12.5,5.7-17.6
	c1.7-2.5,2.3-3.5,2.3-6.4s-0.6-3.9-2.3-6.5C172,93.2,170,87,170,80.7c0-6.3,2-12.4,5.7-17.5c1.7-2.5,2.3-3.5,2.3-6.4
	c0-2.7,1.1-5.2,2.9-7.1c1.9-1.9,4.4-2.9,7.1-2.9s5.2,1,7.1,2.9c1.9,1.9,2.9,4.4,2.9,7.1c0.1,6.3-1.9,12.5-5.7,17.5
	c-1.7,2.5-2.3,3.5-2.3,6.5s0.6,3.9,2.3,6.4c3.7,5.1,5.7,11.2,5.7,17.6c0,6.3-2,12.4-5.7,17.5c-1.7,2.5-2.3,3.5-2.3,6.5
	c0,2.6-1.1,5.2-2.9,7.1C185.2,137.7,182.6,138.7,180,138.7z"/>
<path id="path_4" d="M227,84.1c5.5,0,10-4.5,10-10s-4.5-10-10-10s-10,4.5-10,10S221.5,84.1,227,84.1z"/>
<path id="path_5" d="M104,107.1c5.5,0,10-4.5,10-10s-4.5-10-10-10s-10,4.5-10,10S98.5,107.1,104,107.1z"/>
<path id="path_6" d="M128,38.1c5.5,0,10-4.5,10-10s-4.5-10-10-10c-5.5,0-10,4.5-10,10S122.5,38.1,128,38.1z"/>
</svg>
